build/img/cloud-logo-wrong-1.svg

<svg width="116" height="80" viewBox="0 0 116 80" fill="none" xmlns="http://www.w3.org/2000/svg">
<g clip-path="url(#clip0)">
<path d="M97.4943 30.3296C97.1656 30.1104 96.8593 29.8593 96.5799 29.5799C96.4494 29.4494 96.319 29.319 96.1885 29.1885C95.7325 28.7325 95.3558 28.2044 95.056 27.6334C91.0516 20.0073 85.028 13.5872 75.2008 13.5872C74.5365 13.5881 73.874 13.6215 73.2156 13.6871C69.8782 14.0193 66.3435 12.5755 64.343 9.88352C62.688 7.65652 60.6459 5.71277 58.2953 4.14852C54.2244 1.4394 49.4167 -0.00608118 44.4971 -4.21897e-05C31.5963 -4.21897e-05 22.7757 9.55289 19.4449 20.4146C19.1288 21.4453 18.6519 22.4517 18.1675 23.4147C18.1604 23.4288 18.1533 23.4428 18.1463 23.4568C17.7801 24.1821 17.108 24.6514 16.3606 24.9703C12.0121 26.8261 9.11605 28.8245 5.7297 32.6227C2.05605 36.7433 0.0216394 42.0254 0.000142672 47.4989C-0.016116 52.0213 1.35758 56.4436 3.94206 60.189C6.52655 63.9343 10.2019 66.829 14.4887 68.4954C16.7819 69.4136 20.8527 69.9359 21.1987 69.1607C21.3378 68.8513 20.9917 68.5286 20.0826 68.1194C17.7193 67.0724 15.4498 65.8327 13.298 64.4132C8.96941 61.4189 6.68638 58.3348 5.53639 56.2821C4.11183 53.5661 3.37638 50.5532 3.39245 47.4989C3.40682 42.5752 5.33067 37.8412 8.77361 34.2576C12.2165 30.674 16.9207 28.5092 21.9314 28.2026C22.1613 28.1883 22.3857 28.1282 22.5911 28.0261C22.7966 27.924 22.9786 27.7819 23.1262 27.6085C23.2738 27.4351 23.3838 27.234 23.4496 27.0176C23.5154 26.8011 23.5356 26.5738 23.5088 26.3495C23.4124 25.5544 23.3626 24.7547 23.3596 23.954C23.3596 12.5825 32.858 3.32691 44.4971 3.32691C49.0233 3.34096 53.4267 4.77161 57.0663 7.41055C60.7059 10.0495 63.3915 13.7589 64.7322 17.9988C64.8061 18.2371 64.9336 18.456 65.1053 18.6395C65.277 18.823 65.4885 18.9663 65.7242 19.0589C65.96 19.1515 66.2139 19.191 66.4673 19.1745C66.7206 19.158 66.967 19.086 67.1882 18.9636C69.6676 17.5992 72.4672 16.8929 75.3102 16.9144C78.1532 16.9359 80.9412 17.6845 83.3989 19.0862C85.8566 20.4879 87.8989 22.4943 89.324 24.907C90.749 27.3198 91.5076 30.0554 91.5246 32.8437V33.04C91.5217 33.2817 91.5725 33.5213 91.6736 33.7418C91.7747 33.9623 91.9236 34.1586 92.1099 34.317C92.2962 34.4753 92.5155 34.5919 92.7525 34.6587C92.9894 34.7254 93.2384 34.7407 93.482 34.7034C94.3361 34.5734 95.1992 34.5077 96.0635 34.5072C100.442 34.4974 104.646 36.1928 107.751 39.2207C110.857 42.2487 112.61 46.3617 112.625 50.6562C112.625 55.9294 109.646 61.3524 105.335 64.0339C103.299 65.3347 103.262 65.5809 98.065 68.1094C97.4815 68.3922 96.837 68.7748 97.0236 69.1707C97.1491 69.4435 97.7325 69.5633 98.5433 69.5633C100.438 69.5104 102.31 69.1483 104.083 68.492C108.275 66.7068 111.711 63.5568 113.808 59.5744C115.906 55.5921 116.538 51.0215 115.597 46.6352C114.656 42.2488 112.199 38.3156 108.643 35.5003C105.387 32.9235 103.364 32.1314 99.5941 31.2489C98.8728 31.08 98.1838 30.7892 97.5675 30.3783L97.4943 30.3296Z" fill="#231F20"/>
<path d="M24.4389 75.5219C24.2076 75.5219 24.0202 75.7094 24.0202 75.9406V77.4187C24.0202 77.7878 23.721 78.087 23.3519 78.087C22.9828 78.087 22.6836 77.7878 22.6836 77.4187V72.8832C22.6836 72.5141 22.9828 72.2149 23.3519 72.2149C23.721 72.2149 24.0202 72.5141 24.0202 72.8832V74.0028C24.0202 74.2759 24.2415 74.4972 24.5145 74.4972C24.6709 74.4972 24.8181 74.4232 24.9113 74.2977L26.2814 72.4542C26.3933 72.3036 26.5698 72.2149 26.7573 72.2149C27.2536 72.2149 27.5303 72.7882 27.2216 73.1767L26.3531 74.2699C25.9847 74.7335 25.9867 75.3905 26.3578 75.8519L27.3807 77.1238C27.6923 77.5113 27.4166 78.087 26.9194 78.087C26.7361 78.087 26.5632 78.0021 26.4511 77.8572L24.7701 75.6844C24.6908 75.5819 24.5685 75.5219 24.4389 75.5219Z" fill="#231F20"/>
<path d="M39.3511 76.8377C39.3511 76.1478 38.7918 75.5884 38.1018 75.5884H37.9272C37.2373 75.5884 36.678 76.1478 36.678 76.8377V77.4238C36.678 77.7901 36.381 78.087 36.0148 78.087C35.6485 78.087 35.3516 77.7901 35.3516 77.4238V72.8781C35.3516 72.5118 35.6485 72.2149 36.0148 72.2149C36.381 72.2149 36.678 72.5118 36.678 72.8781V73.3877C36.678 74.0354 37.203 74.5604 37.8507 74.5604H38.1783C38.826 74.5604 39.3511 74.0353 39.3511 73.3877V72.8764C39.3511 72.5111 39.6473 72.2149 40.0126 72.2149C40.3779 72.2149 40.6741 72.5111 40.6741 72.8764V77.4255C40.6741 77.7908 40.3779 78.087 40.0126 78.087C39.6473 78.087 39.3511 77.7908 39.3511 77.4255V76.8377Z" fill="#231F20"/>
<path d="M47.7674 79.4726C47.4295 79.4735 47.1551 79.1999 47.1551 78.862V78.7797C47.1551 78.3971 46.8449 78.0869 46.4624 78.0869H43.4727C43.0896 78.0869 42.779 78.3975 42.779 78.7806V78.8739C42.779 79.2055 42.5102 79.4743 42.1786 79.4743C41.847 79.4743 41.5781 79.2055 41.5781 78.8739V77.4115C41.5781 77.2241 41.73 77.0722 41.9174 77.0722C42.5958 77.0722 42.935 76.2205 43.03 74.078C43.0794 73.0332 43.9408 72.2115 44.9867 72.2115H45.4841C46.5887 72.2115 47.4841 73.107 47.4841 74.2115V76.6228C47.4841 76.8692 47.6839 77.0689 47.9302 77.0689C48.1766 77.0689 48.3763 77.2686 48.3763 77.515V78.862C48.3763 79.1986 48.1039 79.4717 47.7674 79.4726ZM45.1858 73.2396C44.6731 73.2396 44.2498 73.6404 44.222 74.1524L44.2173 74.2377C44.1937 74.6377 44.1615 74.9904 44.1186 75.3011C44.0229 75.9958 44.6714 77.0756 45.3726 77.0756C45.8025 77.0756 46.151 76.7271 46.151 76.2972V74.2048C46.151 73.6717 45.7188 73.2396 45.1858 73.2396Z" fill="#231F20"/>
<path d="M54.1926 78.087C53.8264 78.087 53.5294 77.7901 53.5294 77.4238V77.1112C53.5294 76.1571 52.3012 75.77 51.7542 76.5518L50.9403 77.7148C50.7771 77.9481 50.5104 78.087 50.2257 78.087C49.744 78.087 49.3535 77.6965 49.3535 77.2148V72.8781C49.3535 72.5118 49.6504 72.2149 50.0167 72.2149C50.383 72.2149 50.6799 72.5118 50.6799 72.8781V73.1925C50.6799 74.1495 51.9128 74.5365 52.4597 73.7511L53.2694 72.5883C53.4323 72.3544 53.6994 72.2149 53.9845 72.2149C54.4657 72.2149 54.8558 72.605 54.8558 73.0863V77.4238C54.8558 77.7901 54.5589 78.087 54.1926 78.087Z" fill="#231F20"/>
<path d="M62.3396 78.8718C62.34 79.2044 62.0705 79.4743 61.7379 79.4743C61.4055 79.4743 61.1362 79.2049 61.1362 78.8726V78.7806C61.1362 78.3975 60.8256 78.087 60.4425 78.087H58.3496C57.245 78.087 56.3496 77.1915 56.3496 76.087V72.8747C56.3496 72.5103 56.645 72.2149 57.0094 72.2149C57.3738 72.2149 57.6692 72.5103 57.6692 72.8747V75.8377C57.6692 76.514 58.2175 77.0623 58.8938 77.0623C59.5702 77.0623 60.1185 76.514 60.1185 75.8377V72.8781C60.1185 72.5118 60.4154 72.2149 60.7817 72.2149C61.1479 72.2149 61.4449 72.5118 61.4449 72.8781V76.6159C61.4449 76.8624 61.6447 77.0623 61.8913 77.0623C62.1375 77.0623 62.3373 77.2618 62.3377 77.508L62.3396 78.8718Z" fill="#231F20"/>
<path d="M68.1692 78.087C67.8029 78.087 67.506 77.7901 67.506 77.4238V77.1112C67.506 76.1571 66.2778 75.77 65.7308 76.5518L64.9169 77.7148C64.7537 77.9481 64.4869 78.087 64.2023 78.087C63.7206 78.087 63.3301 77.6965 63.3301 77.2148V72.8781C63.3301 72.5118 63.627 72.2149 63.9933 72.2149C64.3595 72.2149 64.6565 72.5118 64.6565 72.8781V73.1925C64.6565 74.1495 65.8894 74.5365 66.4363 73.7511L67.246 72.5883C67.4089 72.3544 67.676 72.2149 67.9611 72.2149C68.4423 72.2149 68.8324 72.605 68.8324 73.0863V77.4238C68.8324 77.7901 68.5355 78.087 68.1692 78.087Z" fill="#231F20"/>
<path d="M72.8283 78.2301C71.3696 78.2301 69.877 77.2786 69.877 75.1626C69.877 73.0467 71.3696 72.0818 72.8283 72.0818C74.287 72.0818 75.7796 73.0433 75.7796 75.1626C75.7796 77.2819 74.2903 78.2301 72.8283 78.2301ZM74.4091 75.1626C74.4091 73.8085 73.6628 73.1431 72.8283 73.1431C71.9938 73.1431 71.2474 73.8085 71.2474 75.1626C71.2474 76.5167 71.9938 77.1588 72.8283 77.1588C73.6628 77.1588 74.4091 76.52 74.4091 75.1626Z" fill="#231F20"/>
<path d="M80.9239 76.8377C80.9239 76.1478 80.3645 75.5884 79.6746 75.5884H79.5034C78.8134 75.5884 78.2541 76.1478 78.2541 76.8377V77.4238C78.2541 77.7901 77.9572 78.087 77.5909 78.087C77.2247 78.087 76.9277 77.7901 76.9277 77.4238V72.8781C76.9277 72.5118 77.2247 72.2149 77.5909 72.2149C77.9572 72.2149 78.2541 72.5118 78.2541 72.8781V73.3877C78.2541 74.0354 78.7792 74.5604 79.4269 74.5604H79.7511C80.3988 74.5604 80.9239 74.0353 80.9239 73.3877V72.8781C80.9239 72.5118 81.2208 72.2149 81.5871 72.2149C81.9533 72.2149 82.2503 72.5118 82.2503 72.8781V77.4238C82.2503 77.7901 81.9533 78.087 81.5871 78.087C81.2208 78.087 80.9239 77.7901 80.9239 77.4238V76.8377Z" fill="#231F20"/>
<path d="M86.372 77.1488C86.8815 77.1488 87.3222 76.9949 87.6092 76.6873C87.7861 76.4975 88.0091 76.3304 88.2685 76.3304C88.704 76.3304 89.0114 76.7576 88.7562 77.1105C88.5822 77.3512 88.3674 77.5634 88.1192 77.7371C87.6276 78.0812 87.0331 78.2547 86.4297 78.2301C84.5029 78.2301 83.4004 76.7895 83.4004 75.106C83.4004 73.3394 84.6386 72.0818 86.3415 72.0818C87.5342 72.0818 88.4361 72.7001 88.8916 73.6755C89.3409 74.6377 88.3836 75.5219 87.3216 75.5219H86.9153C85.7472 75.5219 84.8648 76.8371 86.0016 77.1056C86.1237 77.1344 86.2482 77.1488 86.372 77.1488ZM87.2793 74.5737C87.6024 74.5737 87.8742 74.3014 87.7472 74.0043C87.67 73.824 87.5573 73.6604 87.4153 73.5231C87.2734 73.3858 87.1051 73.2774 86.9202 73.2041C86.7353 73.1309 86.5375 73.0944 86.3381 73.0966C85.928 73.0876 85.5308 73.2377 85.2329 73.5143C84.7535 73.9594 85.2892 74.5737 85.9435 74.5737H87.2793Z" fill="#231F20"/>
<path d="M91.6355 72.3912C91.6355 72.5679 91.8997 72.6574 92.0352 72.5441C92.1468 72.4509 92.2691 72.3697 92.4 72.3023C92.7138 72.1408 93.0659 72.0647 93.4199 72.0818C94.8785 72.0818 95.9912 73.2729 95.9912 75.1493C95.9912 77.0257 94.8785 78.23 93.4199 78.23C93.0659 78.2472 92.7138 78.171 92.4 78.0096C92.1298 77.8705 91.6355 78.0552 91.6355 78.3591V79.3963C91.6355 79.7297 91.3652 80 91.0318 80H90.974C90.6087 80 90.3125 79.7038 90.3125 79.3385V72.8764C90.3125 72.5111 90.6087 72.2149 90.974 72.2149H91.4592C91.5566 72.2149 91.6355 72.2939 91.6355 72.3912ZM94.6105 75.1493C94.6105 73.9183 94.0542 73.1531 93.1281 73.1531C92.2597 73.1531 91.5812 73.8185 91.5812 75.1493C91.5812 76.4801 92.2597 77.1721 93.1281 77.1721C94.0542 77.1854 94.6105 76.3969 94.6105 75.1493Z" fill="#231F20"/>
<path d="M29.3887 60.1447V59.8852C29.4735 56.8144 30.4064 54.256 34.1379 53.8966L35.242 53.7941C35.9948 53.7241 36.6448 54.3166 36.6448 55.0727C36.6448 55.7285 36.1506 56.2789 35.4986 56.3493L33.5646 56.5582C33.4314 56.5746 33.3013 56.595 33.1753 56.6207C32.5202 56.7542 33.2828 57.4332 33.9513 57.4332C35.8273 57.4332 37.5166 58.764 37.5166 61.3158C37.5166 64.0638 35.3965 65.4345 33.378 65.4345C31.2103 65.4478 29.3887 63.8775 29.3887 60.1447ZM34.6027 61.3291C34.6027 59.9417 33.9988 59.5358 33.3543 59.5358C32.7097 59.5358 32.2111 59.9584 32.2111 61.3291C32.2111 62.5634 32.781 63.1256 33.3848 63.1256C33.9886 63.1256 34.6027 62.6399 34.6027 61.3291Z" fill="#231F20"/>
<path d="M37.9941 63.2271C37.9941 63.0847 38.1096 62.9693 38.252 62.9693C38.7812 62.9693 39.2968 62.437 39.4257 59.6623L39.4731 58.7506C39.5283 57.6878 40.4061 56.8544 41.4704 56.8544H44.4749C45.5795 56.8544 46.4749 57.7498 46.4749 58.8544V63.8134C46.4749 64.604 45.834 65.245 45.0434 65.245C44.2527 65.245 43.6118 64.604 43.6118 63.8134V59.8552C43.6118 59.4547 43.2871 59.13 42.8866 59.13C42.5045 59.13 42.188 59.4265 42.163 59.8078L42.0785 61.0962C41.919 63.4684 41.0167 65.245 38.5369 65.245C38.2371 65.245 37.9941 65.002 37.9941 64.7022V63.2271Z" fill="#231F20"/>
<path d="M51.7353 58.5843C51.5771 58.5683 51.4172 58.5838 51.2652 58.6297C51.1131 58.6757 50.9721 58.7513 50.8505 58.8519C50.7289 58.9525 50.6293 59.0761 50.5575 59.2153C50.437 59.4491 50.2285 59.6622 49.9655 59.6622H49.291C48.5774 59.6622 47.9991 59.0289 48.3363 58.4C48.8977 57.3529 50.0858 56.5549 51.9355 56.5549C54.1439 56.5549 55.7179 57.4598 55.6908 60.2678V61.8747C55.6799 62.533 55.6917 63.1913 55.726 63.8486C55.7652 64.5971 55.1822 65.2449 54.4327 65.2449H53.4094C53.2755 65.2449 53.1669 65.1363 53.1669 65.0024C53.1669 64.7585 52.801 64.6366 52.6132 64.7922C52.0584 65.2517 51.338 65.4478 50.548 65.4478C49.0419 65.4478 47.7969 64.4331 47.7969 62.936C47.7969 61.0336 49.5541 60.2019 52.6524 59.9587C52.7831 59.9485 52.8853 59.8399 52.8853 59.7088C52.8819 58.7706 52.3527 58.5843 51.7353 58.5843ZM50.66 62.5767C50.66 62.936 50.9348 63.3419 51.6064 63.3419C52.3527 63.3419 52.9837 63.0092 52.9837 61.7183C52.9837 61.5835 52.8689 61.4768 52.7347 61.4889C51.3763 61.6117 50.66 61.9024 50.66 62.5933V62.5767Z" fill="#231F20"/>
<path d="M61.7395 64.0231C61.7395 63.2362 61.0026 62.6581 60.2166 62.6943C60.0844 62.7004 59.9519 62.7033 59.8194 62.7032C58.0995 62.7032 57.0547 61.8282 57.0547 59.9584V58.2876C57.0547 57.4961 57.6964 56.8544 58.4879 56.8544C59.2795 56.8544 59.9212 57.4961 59.9212 58.2876V59.4727C59.9212 60.4242 60.2197 60.5806 61.0373 60.5806C61.4575 60.5844 61.7395 60.1969 61.7395 59.7767V58.2876C61.7395 57.4961 62.3812 56.8544 63.1727 56.8544C63.9643 56.8544 64.606 57.4961 64.606 58.2876V63.8117C64.606 64.6033 63.9643 65.245 63.1727 65.245H62.9613C62.2865 65.245 61.7395 64.6979 61.7395 64.0231Z" fill="#231F20"/>
<path d="M66.3072 58.2879C66.3069 57.4963 66.9486 56.8544 67.7402 56.8544C68.5316 56.8544 69.1731 57.4959 69.1731 58.2873V58.6941C69.1731 59.3152 69.6766 59.8187 70.2977 59.8187C70.9188 59.8187 71.4222 59.3152 71.4222 58.6941V58.2893C71.4222 57.4968 72.0647 56.8544 72.8572 56.8544C73.6497 56.8544 74.2921 57.4968 74.2921 58.2893V63.8117C74.2921 64.6033 73.6504 65.245 72.8589 65.245C72.0673 65.245 71.4256 64.6033 71.4256 63.8117V63.2189C71.4256 62.5978 70.9222 62.0943 70.3011 62.0943C69.68 62.0943 69.1765 62.5978 69.1765 63.2189V63.8114C69.1765 64.6031 68.5347 65.245 67.743 65.245C66.9515 65.245 66.3098 64.6035 66.3095 63.812L66.3072 58.2879Z" fill="#231F20"/>
<path d="M76.0098 58.2859C76.0098 57.4953 76.6507 56.8544 77.4413 56.8544H77.6486C78.3247 56.8544 78.8729 57.4025 78.8729 58.0787V58.2853C78.8729 58.8474 79.3285 59.303 79.8906 59.303C82.2957 59.303 83.3134 60.2079 83.3134 62.2341C83.3134 64.4964 82.4111 65.245 80.0636 65.245H78.0098C76.9052 65.245 76.0098 64.3495 76.0098 63.245V58.2859ZM79.8058 63.139C80.3926 63.139 80.7658 62.9527 80.7658 62.2341C80.7658 61.5953 80.3926 61.409 79.8193 61.409H79.7379C79.2602 61.409 78.8729 61.7963 78.8729 62.274C78.8729 62.7517 79.2602 63.139 79.7379 63.139H79.8058ZM84.2768 58.2859C84.2768 57.4953 84.9178 56.8544 85.7084 56.8544C86.499 56.8544 87.1399 57.4953 87.1399 58.2859V63.8134C87.1399 64.604 86.499 65.245 85.7084 65.245C84.9178 65.245 84.2768 64.604 84.2768 63.8134V58.2859Z" fill="#231F20"/>
<path d="M88.8574 56.8543H91.5068V61.5121L94.1596 56.8543H96.809V65.2449H94.1596V60.6737L91.5068 65.2449H88.8574V56.8543ZM90.0617 53.9366H91.7578C91.8291 54.3092 92.1887 54.4988 92.8332 54.4988C93.4777 54.4988 93.8509 54.3092 93.9086 53.9366H95.6047C95.4894 55.091 94.587 55.8862 92.8264 55.8862C91.0658 55.8862 90.1465 55.091 90.0617 53.9366Z" fill="#231F20"/>
<path d="M24.445 56.6049C26.7348 56.6049 28.6853 58.0854 28.6853 61.033C28.6853 63.9807 26.7348 65.4479 24.445 65.4479C22.1551 65.4479 20.2012 63.9807 20.2012 61.033C20.2012 58.0854 22.1518 56.6049 24.445 56.6049ZM24.445 63.1257C25.1743 63.1257 25.734 62.5934 25.734 61.033C25.734 59.4727 25.1743 58.9271 24.445 58.9271C23.7156 58.9271 23.1559 59.4727 23.1559 61.033C23.1559 62.5934 23.7122 63.1257 24.445 63.1257Z" fill="#231F20"/>
<path d="M31.2365 78.2301C29.7778 78.2301 28.2852 77.2786 28.2852 75.1626C28.2852 73.0467 29.7778 72.0818 31.2365 72.0818C32.6952 72.0818 34.1878 73.0433 34.1878 75.1626C34.1878 77.2819 32.6952 78.2301 31.2365 78.2301ZM32.8173 75.1626C32.8173 73.8085 32.071 73.1431 31.2365 73.1431C30.402 73.1431 29.6556 73.8085 29.6556 75.1626C29.6556 76.5167 30.402 77.1588 31.2365 77.1588C32.071 77.1588 32.8173 76.52 32.8173 75.1626Z" fill="#231F20"/>
</g>
<defs>
<clipPath id="clip0">
<rect width="116" height="80" fill="white"/>
</clipPath>
</defs>
</svg>

<svg width="116" height="80" viewBox="0 0 116 80" fill="none" xmlns="http://www.w3.org/2000/svg"><g clip-path="url(#clip0)" fill="#231F20"><path d="M97.494 30.33a6.004 6.004 0 01-.914-.75l-.391-.391a6.396 6.396 0 01-1.133-1.556c-4.004-7.626-10.028-14.046-19.855-14.046a20.3 20.3 0 00-1.985.1c-3.338.332-6.872-1.111-8.873-3.803a24.31 24.31 0 00-6.048-5.735A24.86 24.86 0 0044.497 0c-12.9 0-21.721 9.553-25.052 20.415-.316 1.03-.793 2.037-1.277 3l-.022.042c-.366.725-1.038 1.194-1.785 1.513-4.349 1.856-7.245 3.855-10.631 7.653C2.056 36.743.022 42.025 0 47.499a22.195 22.195 0 003.942 12.69 22.866 22.866 0 0010.547 8.306c2.293.919 6.364 1.44 6.71.666.139-.31-.207-.632-1.116-1.042a46.595 46.595 0 01-6.785-3.706c-4.329-2.994-6.612-6.078-7.762-8.13a18.69 18.69 0 01-2.144-8.784c.015-4.924 1.939-9.658 5.382-13.241 3.443-3.584 8.147-5.749 13.157-6.055a1.723 1.723 0 001.195-.595 1.654 1.654 0 00.383-1.259 20.54 20.54 0 01-.15-2.395c0-11.372 9.499-20.627 21.138-20.627a21.535 21.535 0 0112.57 4.084 20.86 20.86 0 017.665 10.588c.074.238.202.457.373.64a1.727 1.727 0 002.083.324 16.593 16.593 0 018.122-2.049 16.59 16.59 0 018.089 2.172 16.187 16.187 0 015.925 5.821 15.79 15.79 0 012.2 7.937v.196a1.668 1.668 0 00.585 1.277 1.708 1.708 0 001.373.386c.854-.13 1.717-.195 2.582-.196 4.378-.01 8.582 1.686 11.687 4.714 3.106 3.028 4.859 7.14 4.874 11.435 0 5.273-2.979 10.696-7.29 13.378-2.036 1.3-2.073 1.547-7.27 4.075-.584.283-1.228.666-1.041 1.062.125.272.709.392 1.52.392a17.356 17.356 0 005.539-1.071c4.192-1.785 7.628-4.935 9.725-8.918a19.127 19.127 0 001.789-12.939c-.941-4.386-3.398-8.32-6.954-11.135-3.256-2.577-5.279-3.369-9.049-4.251a6.197 6.197 0 01-2.026-.87l-.074-.05zM24.439 75.522a.419.419 0 00-.419.419v1.478a.668.668 0 11-1.336 0v-4.536a.668.668 0 111.336 0v1.12a.494.494 0 00.891.295l1.37-1.844a.593.593 0 11.94.723l-.868 1.093a1.267 1.267 0 00.005 1.582l1.023 1.272a.592.592 0 11-.93.733l-1.68-2.173a.419.419 0 00-.332-.162zm14.912 1.316c0-.69-.56-1.25-1.25-1.25h-.174c-.69 0-1.249.56-1.249 1.25v.586a.663.663 0 01-1.326 0v-4.546a.663.663 0 111.326 0v.51c0 .647.525 1.172 1.173 1.172h.327c.648 0 1.173-.525 1.173-1.172v-.512a.662.662 0 011.323 0v4.55a.662.662 0 01-1.323 0v-.588zm8.416 2.635a.61.61 0 01-.612-.611v-.082a.693.693 0 00-.693-.693h-2.99a.694.694 0 00-.693.694v.093a.6.6 0 11-1.2 0v-1.462a.34.34 0 01.338-.34c.679 0 1.018-.852 1.113-2.994a1.959 1.959 0 011.957-1.867h.497a2 2 0 012 2v2.412c0 .246.2.446.446.446.247 0 .446.2.446.446v1.347a.61.61 0 01-.609.61zm-2.581-6.233c-.513 0-.936.4-.964.912l-.005.086c-.023.4-.056.752-.098 1.063-.096.695.552 1.775 1.254 1.775.43 0 .778-.349.778-.779v-2.092a.965.965 0 00-.965-.965zm9.007 4.847a.663.663 0 01-.664-.663v-.313c0-.954-1.228-1.341-1.775-.56l-.814 1.164a.872.872 0 01-1.587-.5v-4.337a.663.663 0 111.327 0v.314c0 .958 1.233 1.345 1.78.56l.81-1.164a.872.872 0 011.586.498v4.338a.663.663 0 01-.663.663zm8.147.785a.602.602 0 11-1.204 0v-.091a.694.694 0 00-.694-.694H58.35a2 2 0 01-2-2v-3.212a.66.66 0 111.32 0v2.963a1.225 1.225 0 002.448 0v-2.96a.663.663 0 111.327 0v3.738c0 .246.2.446.446.446.247 0 .446.2.447.446l.002 1.364zm5.83-.785a.663.663 0 01-.664-.663v-.313c0-.954-1.228-1.341-1.775-.56l-.814 1.164a.872.872 0 01-1.587-.5v-4.337a.663.663 0 111.326 0v.314c0 .958 1.233 1.345 1.78.56l.81-1.164a.872.872 0 011.586.498v4.338a.663.663 0 01-.663.663zm4.658.143c-1.458 0-2.951-.951-2.951-3.067s1.493-3.081 2.951-3.081c1.459 0 2.952.961 2.952 3.08 0 2.12-1.49 3.068-2.952 3.068zm1.581-3.067c0-1.355-.746-2.02-1.58-2.02-.835 0-1.582.665-1.582 2.02 0 1.354.747 1.996 1.581 1.996.835 0 1.581-.639 1.581-1.996zm6.515 1.675c0-.69-.56-1.25-1.25-1.25h-.17c-.69 0-1.25.56-1.25 1.25v.586a.663.663 0 11-1.326 0v-4.546a.663.663 0 011.326 0v.51c0 .647.525 1.172 1.173 1.172h.324c.648 0 1.173-.525 1.173-1.172v-.51a.663.663 0 111.326 0v4.546a.663.663 0 01-1.326 0v-.586zm5.448.311c.51 0 .95-.154 1.237-.462.177-.19.4-.357.66-.357.435 0 .742.428.487.78a2.69 2.69 0 01-.637.627 2.752 2.752 0 01-1.69.493c-1.926 0-3.029-1.44-3.029-3.124 0-1.767 1.239-3.024 2.941-3.024 1.193 0 2.095.618 2.55 1.594.45.962-.507 1.846-1.57 1.846h-.406c-1.168 0-2.05 1.315-.913 1.584.122.028.246.043.37.043zm.907-2.575c.323 0 .595-.273.468-.57a1.48 1.48 0 00-.332-.48 1.514 1.514 0 00-1.077-.427 1.574 1.574 0 00-1.105.417c-.48.445.056 1.06.71 1.06h1.336zm4.356-2.183c0 .177.265.266.4.153a2.017 2.017 0 011.385-.462c1.459 0 2.571 1.19 2.571 3.067 0 1.877-1.112 3.081-2.571 3.081a2.017 2.017 0 01-1.02-.22c-.27-.14-.765.045-.765.35v1.036c0 .334-.27.604-.603.604h-.058a.662.662 0 01-.662-.662v-6.462c0-.365.297-.661.662-.661h.485c.098 0 .176.079.176.176zm2.975 2.758c0-1.23-.556-1.996-1.482-1.996-.868 0-1.547.665-1.547 1.996s.679 2.023 1.547 2.023c.926.013 1.483-.775 1.483-2.023z"/><path d="M29.389 60.145v-.26c.085-3.07 1.017-5.629 4.749-5.988l1.104-.103a1.284 1.284 0 01.257 2.555l-1.934.21a5.02 5.02 0 00-.39.062c-.655.133.108.812.776.812 1.876 0 3.566 1.331 3.566 3.883 0 2.748-2.12 4.118-4.139 4.118-2.168.014-3.99-1.556-3.99-5.29zm5.214 1.184c0-1.387-.604-1.793-1.249-1.793-.644 0-1.143.422-1.143 1.793 0 1.234.57 1.797 1.174 1.797s1.218-.486 1.218-1.797zm3.391 1.898c0-.142.116-.258.258-.258.53 0 1.045-.532 1.174-3.307l.047-.911a2 2 0 011.997-1.897h3.005a2 2 0 012 2v4.96a1.432 1.432 0 11-2.863 0v-3.959a.725.725 0 00-1.449-.047l-.084 1.288c-.16 2.372-1.062 4.149-3.542 4.149a.543.543 0 01-.543-.543v-1.475zm13.741-4.643a1.207 1.207 0 00-.885.268c-.121.1-.22.224-.293.363-.12.234-.329.447-.592.447h-.674c-.714 0-1.292-.633-.955-1.262.562-1.047 1.75-1.845 3.6-1.845 2.208 0 3.782.905 3.755 3.713v1.607c-.011.658 0 1.316.035 1.974.04.748-.544 1.396-1.293 1.396h-1.024a.243.243 0 01-.242-.243c0-.243-.366-.365-.554-.21-.555.46-1.275.656-2.065.656-1.506 0-2.751-1.015-2.751-2.512 0-1.902 1.757-2.734 4.855-2.977a.252.252 0 00.233-.25c-.003-.938-.532-1.125-1.15-1.125zm-1.075 3.993c0 .359.275.765.946.765.747 0 1.378-.333 1.378-1.624a.23.23 0 00-.25-.23c-1.358.124-2.074.414-2.074 1.105v-.016zm11.08 1.446c0-.787-.737-1.365-1.523-1.329a8.48 8.48 0 01-.398.01c-1.72 0-2.764-.876-2.764-2.746v-1.67a1.433 1.433 0 012.866 0v1.185c0 .951.299 1.108 1.116 1.108.42.003.703-.384.703-.804v-1.49a1.433 1.433 0 012.866 0v5.525c0 .791-.642 1.433-1.433 1.433h-.212a1.222 1.222 0 01-1.221-1.222zm4.567-5.735a1.433 1.433 0 112.866 0v.406a1.125 1.125 0 102.25 0v-.405a1.435 1.435 0 012.87 0v5.523a1.433 1.433 0 11-2.867 0v-.593a1.125 1.125 0 10-2.25 0v.592a1.434 1.434 0 01-2.867.001l-.002-5.524zm9.703-.002c0-.79.64-1.432 1.431-1.432h.208c.676 0 1.224.549 1.224 1.225v.206c0 .562.456 1.018 1.018 1.018 2.405 0 3.422.905 3.422 2.931 0 2.262-.902 3.011-3.25 3.011H78.01a2 2 0 01-2-2v-4.96zm3.796 4.853c.587 0 .96-.186.96-.905 0-.639-.373-.825-.947-.825h-.081a.865.865 0 000 1.73h.068zm4.47-4.853a1.432 1.432 0 012.864 0v5.527a1.432 1.432 0 11-2.863 0v-5.527zm4.581-1.432h2.65v4.658l2.653-4.658h2.649v8.39h-2.65v-4.57l-2.652 4.57h-2.65v-8.39zm1.205-2.917h1.696c.071.372.43.562 1.075.562s1.018-.19 1.076-.562h1.696c-.116 1.154-1.018 1.95-2.779 1.95-1.76 0-2.68-.796-2.764-1.95zm-65.617 2.668c2.29 0 4.24 1.48 4.24 4.428s-1.95 4.415-4.24 4.415-4.244-1.467-4.244-4.415 1.95-4.428 4.244-4.428zm0 6.52c.73 0 1.289-.532 1.289-2.092s-.56-2.106-1.289-2.106c-.73 0-1.29.546-1.29 2.106 0 1.56.557 2.093 1.29 2.093zm6.791 15.105c-1.458 0-2.95-.951-2.95-3.067s1.492-3.081 2.95-3.081c1.46 0 2.952.961 2.952 3.08 0 2.12-1.493 3.068-2.952 3.068zm1.581-3.067c0-1.355-.746-2.02-1.58-2.02-.835 0-1.581.665-1.581 2.02 0 1.354.746 1.996 1.58 1.996.835 0 1.581-.639 1.581-1.996z"/></g><defs><clipPath id="clip0"><path fill="#fff" d="M0 0h116v80H0z"/></clipPath></defs></svg>
